src/components/00-materials/images-raw/Contractor.svg

<svg width="96" height="96" viewBox="0 0 96 96" fill="none" xmlns="http://www.w3.org/2000/svg">
<path d="M46.74 28.7199C43.55 28.7199 40.47 26.1699 39.24 23.1799C37.24 27.4999 34.82 30.9299 28.75 30.9299H22.67V39.7899C22.67 47.1299 27.09 53.0799 34.82 53.0799C42.55 53.0799 47 47.1299 47 39.7899V28.7199H46.74Z" stroke="#00008F" stroke-width="2" stroke-linecap="round" stroke-linejoin="round"/>
<path d="M47 40.8999C48.7647 39.6537 50.1928 37.9892 51.1561 36.0554C52.1195 34.1217 52.5881 31.9792 52.52 29.8199V23.1799C52.5213 22.5986 52.408 22.0228 52.1864 21.4854C51.9649 20.9479 51.6395 20.4595 51.229 20.048C50.8184 19.6365 50.3307 19.3101 49.7938 19.0873C49.2569 18.8645 48.6813 18.7499 48.1 18.7499C46.6761 16.3481 44.642 14.366 42.2042 13.0049C39.7663 11.6437 37.0117 10.9519 34.22 10.9999H32.91C28.7257 11.0078 24.7156 12.6763 21.7606 15.6388C18.8056 18.6013 17.1473 22.6156 17.15 26.7999V29.5199C17.15 33.7999 19.36 38.6799 22.67 40.8999M27.09 50.4199V56.2799L17.5 57.8699C14.0751 58.3212 10.9271 59.9904 8.63175 62.5721C6.33645 65.1539 5.04727 68.4757 5 71.9299V77.0999C5.01326 78.1456 5.39276 79.1536 6.07246 79.9484C6.75215 80.7432 7.68901 81.2745 8.72 81.4499L21 83.7199C30.1676 85.4299 39.5724 85.4299 48.74 83.7199L60.97 81.4499C62.001 81.2745 62.9378 80.7432 63.6175 79.9484C64.2972 79.1536 64.6767 78.1456 64.69 77.0999V71.9299C64.6435 68.469 63.3494 65.1412 61.0456 62.5582C58.7418 59.9751 55.583 58.3104 52.15 57.8699L42.55 56.2799V50.4199M17.15 77.2699V82.9799M52.49 77.2699V82.9799" stroke="#00008F" stroke-width="2" stroke-linecap="round" stroke-linejoin="round"/>
<path d="M24.1 56.7699L33.1 67.5199C33.3074 67.7661 33.5662 67.964 33.8581 68.0997C34.15 68.2355 34.468 68.3058 34.79 68.3058C35.1119 68.3058 35.43 68.2355 35.7219 68.0997C36.0138 67.964 36.2725 67.7661 36.48 67.5199L45.48 56.7799M65 33.1599V51.5799H91V33.1599M65 33.1599H91M65 33.1599V26.6599H91V33.1599M70.96 39.6599H85.04M85.04 45.0799H76.38M73 29.1399V24.1399M83 29.1399V24.1399" stroke="#00008F" stroke-width="2" stroke-linecap="round" stroke-linejoin="round"/>
</svg>

<svg width="96" height="96" viewBox="0 0 96 96" fill="none" xmlns="http://www.w3.org/2000/svg"><path d="M46.74 28.72c-3.19 0-6.27-2.55-7.5-5.54-2 4.32-4.42 7.75-10.49 7.75h-6.08v8.86c0 7.34 4.42 13.29 12.15 13.29S47 47.13 47 39.79V28.72h-.26z" stroke="#00008F" stroke-width="2" stroke-linecap="round" stroke-linejoin="round"/><path d="M47 40.9a13.06 13.06 0 005.52-11.08v-6.64a4.419 4.419 0 00-4.42-4.43A15.82 15.82 0 0034.22 11h-1.31a15.79 15.79 0 00-15.76 15.8v2.72c0 4.28 2.21 9.16 5.52 11.38m4.42 9.52v5.86l-9.59 1.59A14.38 14.38 0 005 71.93v5.17a4.47 4.47 0 003.72 4.35L21 83.72a75.642 75.642 0 0027.74 0l12.23-2.27a4.47 4.47 0 003.72-4.35v-5.17a14.37 14.37 0 00-12.54-14.06l-9.6-1.59v-5.86m-25.4 26.85v5.71m35.34-5.71v5.71" stroke="#00008F" stroke-width="2" stroke-linecap="round" stroke-linejoin="round"/><path d="M24.1 56.77l9 10.75a2.209 2.209 0 003.38 0l9-10.74M65 33.16v18.42h26V33.16m-26 0h26m-26 0v-6.5h26v6.5m-20.04 6.5h14.08m0 5.42h-8.66M73 29.14v-5m10 5v-5" stroke="#00008F" stroke-width="2" stroke-linecap="round" stroke-linejoin="round"/></svg>
